X: 10462
T: THE NOVELTY REEL
C: By Fraser
R: reel
B: K\"ohler's Violin Repository, v.1, 1885 p.46 #2
F: http://www.archive.org/details/klersviolinrepos01edin
Z: 2011 John Chambers <jc:trillian.mit.edu>
M: C|
L: 1/8
K: Eb
uE2 !segno!|\
B,EG,E B,G,G,E | B,G,B,E G2(GB) | B,EG,E B,EGB | AGFE F2(uF :|
uc |\
BGe2 (BG)Gc | BGBc Bedc | BGe2 (BG)GB | AGFE [F2B,2](FG) |
BGe2 (BG)Gc | BGBe g2(ga) | bgec eBAG | AGFE [F2B,2] "_Fine"(FG)!segno! |]

%%sep 2 1 500

